images-ng/colibre/bookmark-new.svg

<?xml version="1.0" encoding="UTF-8" standalone="no"?>
<svg
   viewBox="0 0 24 24"
   version="1.1"
   id="svg20"
   sodipodi:docname="lc_bookmark-new.svg"
   inkscape:version="1.2.1 (9c6d41e410, 2022-07-14)"
   xml:space="preserve"
   xmlns:inkscape="http://www.inkscape.org/namespaces/inkscape"
   xmlns:sodipodi="http://sodipodi.sourceforge.net/DTD/sodipodi-0.dtd"
   xmlns="http://www.w3.org/2000/svg"
   xmlns:svg="http://www.w3.org/2000/svg"
   xmlns:rdf="http://www.w3.org/1999/02/22-rdf-syntax-ns#"
   xmlns:cc="http://creativecommons.org/ns#"
   xmlns:dc="http://purl.org/dc/elements/1.1/"><metadata
     id="metadata26"><rdf:RDF><cc:Work
         rdf:about=""><dc:format>image/svg+xml</dc:format><dc:type
           rdf:resource="http://purl.org/dc/dcmitype/StillImage" /></cc:Work></rdf:RDF></metadata><defs
     id="defs24" /><sodipodi:namedview
     pagecolor="#ffffff"
     bordercolor="#666666"
     borderopacity="1"
     objecttolerance="10"
     gridtolerance="10"
     guidetolerance="10"
     inkscape:pageopacity="0"
     inkscape:pageshadow="2"
     inkscape:window-width="1920"
     inkscape:window-height="1031"
     id="namedview22"
     showgrid="true"
     inkscape:zoom="32"
     inkscape:cx="4.25"
     inkscape:cy="11.65625"
     inkscape:window-x="0"
     inkscape:window-y="0"
     inkscape:window-maximized="1"
     inkscape:current-layer="svg20"
     inkscape:showpageshadow="2"
     inkscape:pagecheckerboard="0"
     inkscape:deskcolor="#d1d1d1"><inkscape:grid
       type="xygrid"
       id="grid833" /></sodipodi:namedview><path
     id="path427"
     style="color:#000000;fill:#ff9198;stroke-linecap:round;stroke-linejoin:round;-inkscape-stroke:none"
     d="M 8.6210938 2.5 L 8.1210938 3 L 8.5 3 C 9.313702 3 10 3.686298 10 4.5 C 10 5.313702 9.313702 6 8.5 6 L 8.1191406 6 L 9.5566406 7.4375 C 10.131922 8.0127829 10.131923 8.9833108 9.5566406 9.5585938 C 8.9813574 10.133877 8.0108301 10.133877 7.4355469 9.5585938 L 6 8.1230469 L 6 8.5 C 6 8.9325323 5.8038926 9.3269254 5.5 9.6035156 L 5.5 21.5 L 12 15.5 L 18.5 21.5 L 18.5 2.5 L 8.6210938 2.5 z " /><path
     id="path429"
     style="color:#000000;fill:#d42314;stroke-linecap:round;stroke-linejoin:round;-inkscape-stroke:none"
     d="M 9.1210938 2 L 8.1210938 3 L 8.5 3 L 18 3 L 18 20.357422 L 12.339844 15.132812 A 0.50005 0.50005 0 0 0 11.660156 15.132812 L 6 20.357422 L 6 8.5 C 6 9.1393712 5.5763181 9.6992464 5 9.9101562 L 5 21.5 A 0.50005 0.50005 0 0 0 5.8398438 21.867188 L 12 16.179688 L 18.160156 21.867188 A 0.50005 0.50005 0 0 0 19 21.5 L 19 2.5 A 0.50005 0.50005 0 0 0 18.5 2 L 9.1210938 2 z " /><g
     id="g918"
     transform="translate(1)"><path
       id="rect835"
       d="M 3.5,0 C 3.223,0 3,0.223 3,0.5 V 2.0507812 A 2.5,2.5 0 0 0 2.1210938,2.4160156 L -0.14453125,0.15039062 c -0.19586858,-0.19586857 -0.51116267,-0.19586857 -0.70703125,0 -0.1958686,0.19586858 -0.1958686,0.51116268 0,0.70703126 L 1.4140625,3.1230469 A 2.5,2.5 0 0 0 1.0546875,4 H -0.5 C -0.777,4 -1,4.223 -1,4.5 -1,4.777 -0.777,5 -0.5,5 h 1.5507812 a 2.5,2.5 0 0 0 0.3652344,0.8769531 l -2.2675781,2.2675781 c -0.1958685,0.1958687 -0.1958685,0.5111627 0,0.7070313 0.19586857,0.1958685 0.51116267,0.1958685 0.70703125,0 L 2.1230469,6.5839844 A 2.5,2.5 0 0 0 3,6.9453125 V 8.5 C 3,8.777 3.223,9 3.5,9 3.777,9 4,8.777 4,8.5 V 6.9492188 A 2.5,2.5 0 0 0 4.875,6.5839844 l 2.2675781,2.2675781 c 0.1958686,0.1958686 0.5111627,0.1958686 0.7070313,0 0.1958686,-0.1958686 0.1958686,-0.5111626 0,-0.7070313 L 5.5839844,5.8789062 A 2.5,2.5 0 0 0 5.9453125,5 H 7.5 C 7.777,5 8,4.777 8,4.5 8,4.223 7.777,4 7.5,4 H 5.9492188 A 2.5,2.5 0 0 0 5.5839844,3.1230469 l 2.265625,-2.26562502 c 0.1958686,-0.19586858 0.1958686,-0.51116268 0,-0.70703126 -0.1958686,-0.19586857 -0.5111627,-0.19586857 -0.7070313,0 L 4.8769531,2.4160156 A 2.5,2.5 0 0 0 4,2.0546875 V 0.5 C 4,0.223 3.777,0 3.5,0 Z m 0,3 A 1.5,1.5 0 0 1 5,4.5 1.5,1.5 0 0 1 3.5,6 1.5,1.5 0 0 1 2,4.5 1.5,1.5 0 0 1 2.4394531,3.4414062 1.5,1.5 0 0 1 2.4414062,3.4394531 1.5,1.5 0 0 1 3.5,3 Z"
       style="opacity:1;fill:#fb983b;fill-opacity:1;stroke:none;stroke-width:1;stroke-linecap:round;stroke-linejoin:round;stroke-miterlimit:4;stroke-dasharray:none;stroke-dashoffset:0;stroke-opacity:1;paint-order:normal"
       inkscape:connector-curvature="0" /><circle
       r="1.5"
       cy="4.5"
       cx="3.5"
       id="path907"
       style="opacity:1;fill:#fafafa;fill-opacity:1;stroke:none;stroke-width:1;stroke-linecap:round;stroke-linejoin:round;stroke-miterlimit:4;stroke-dasharray:none;stroke-dashoffset:0;stroke-opacity:1;paint-order:normal" /></g></svg>

<svg version="1.1" viewBox="0 0 24 24" xmlns="http://www.w3.org/2000/svg"><path d="m8.6211 2.5-0.5 0.5h0.37891c0.8137 0 1.5 0.6863 1.5 1.5s-0.6863 1.5-1.5 1.5h-0.38086l1.4375 1.4375c0.57528 0.57528 0.57528 1.5458 0 2.1211-0.57528 0.57528-1.5458 0.57528-2.1211 0l-1.4355-1.4355v0.37695c0 0.43253-0.19611 0.82693-0.5 1.1035v11.896l6.5-6 6.5 6v-19h-9.8789z" color="#000000" fill="#ff9198" stroke-linecap="round" stroke-linejoin="round" style="-inkscape-stroke:none"/><path d="m9.1211 2-1 1h0.37891 9.5v17.357l-5.6602-5.2246a0.50005 0.50005 0 0 0-0.67969 0l-5.6602 5.2246v-11.857c0 0.63937-0.42368 1.1992-1 1.4102v11.59a0.50005 0.50005 0 0 0 0.83984 0.36719l6.1602-5.6875 6.1602 5.6875a0.50005 0.50005 0 0 0 0.83984-0.36719v-19a0.50005 0.50005 0 0 0-0.5-0.5h-9.3789z" color="#000000" fill="#d42314" stroke-linecap="round" stroke-linejoin="round" style="-inkscape-stroke:none"/><g transform="translate(1)"><path d="m3.5 0c-0.277 0-0.5 0.223-0.5 0.5v1.5508a2.5 2.5 0 0 0-0.87891 0.36523l-2.2656-2.2656c-0.19587-0.19587-0.51116-0.19587-0.70703 0-0.19587 0.19587-0.19587 0.51116 0 0.70703l2.2656 2.2656a2.5 2.5 0 0 0-0.35938 0.87695h-1.5547c-0.277 0-0.5 0.223-0.5 0.5s0.223 0.5 0.5 0.5h1.5508a2.5 2.5 0 0 0 0.36523 0.87695l-2.2676 2.2676c-0.19587 0.19587-0.19587 0.51116 0 0.70703 0.19587 0.19587 0.51116 0.19587 0.70703 0l2.2676-2.2676a2.5 2.5 0 0 0 0.87695 0.36133v1.5547c0 0.277 0.223 0.5 0.5 0.5s0.5-0.223 0.5-0.5v-1.5508a2.5 2.5 0 0 0 0.875-0.36523l2.2676 2.2676c0.19587 0.19587 0.51116 0.19587 0.70703 0s0.19587-0.51116 0-0.70703l-2.2656-2.2656a2.5 2.5 0 0 0 0.36133-0.87891h1.5547c0.277 0 0.5-0.223 0.5-0.5s-0.223-0.5-0.5-0.5h-1.5508a2.5 2.5 0 0 0-0.36523-0.87695l2.2656-2.2656c0.19587-0.19587 0.19587-0.51116 0-0.70703-0.19587-0.19587-0.51116-0.19587-0.70703 0l-2.2656 2.2656a2.5 2.5 0 0 0-0.87695-0.36133v-1.5547c0-0.277-0.223-0.5-0.5-0.5zm0 3a1.5 1.5 0 0 1 1.5 1.5 1.5 1.5 0 0 1-1.5 1.5 1.5 1.5 0 0 1-1.5-1.5 1.5 1.5 0 0 1 0.43945-1.0586 1.5 1.5 0 0 1 0.0019531-0.0019531 1.5 1.5 0 0 1 1.0586-0.43945z" fill="#fb983b" style="paint-order:normal"/><circle cx="3.5" cy="4.5" r="1.5" fill="#fafafa" style="paint-order:normal"/></g></svg>
